humanity-icon-theme/Humanity/actions/24/object-inverse.svg

<?xml version="1.0" encoding="UTF-8" standalone="no"?>
<!-- Created with Inkscape (http://www.inkscape.org/) -->
<svg
   xmlns:svg="http://www.w3.org/2000/svg"
   xmlns="http://www.w3.org/2000/svg"
   xmlns:xlink="http://www.w3.org/1999/xlink"
   version="1.0"
   width="24"
   height="24"
   id="svg3365">
  <defs
     id="defs3367">
    <linearGradient
       id="linearGradient8838">
      <stop
         id="stop8840"
         style="stop-color:#000000;stop-opacity:1"
         offset="0" />
      <stop
         id="stop8842"
         style="stop-color:#000000;stop-opacity:0"
         offset="1" />
    </linearGradient>
    <radialGradient
       cx="62.625"
       cy="4.625"
       r="10.625"
       fx="62.625"
       fy="4.625"
       id="radialGradient2436"
       xlink:href="#linearGradient8838"
       gradientUnits="userSpaceOnUse"
       gradientTransform="matrix(1.1294118,0,0,0.2823525,-58.729414,19.694118)" />
    <linearGradient
       id="linearGradient3334-995-903-143-677-209-356-728">
      <stop
         id="stop5026"
         style="stop-color:#808080;stop-opacity:1"
         offset="0" />
      <stop
         id="stop5028"
         style="stop-color:#6d6d6d;stop-opacity:1"
         offset="0.87326682" />
      <stop
         id="stop5030"
         style="stop-color:#4f5053;stop-opacity:1"
         offset="1" />
    </linearGradient>
    <linearGradient
       x1="12.962829"
       y1="2.6837947"
       x2="12.962829"
       y2="45.326431"
       id="linearGradient2433"
       xlink:href="#linearGradient3334-995-903-143-677-209-356-728"
       gradientUnits="userSpaceOnUse"
       gradientTransform="matrix(0.5160413,0,0,0.5160413,-0.384991,-0.3849911)" />
    <linearGradient
       id="linearGradient3268">
      <stop
         id="stop3270"
         style="stop-color:#ffffff;stop-opacity:1"
         offset="0" />
      <stop
         id="stop3272"
         style="stop-color:#cdcdcd;stop-opacity:1"
         offset="1" />
    </linearGradient>
    <linearGradient
       id="linearGradient3227">
      <stop
         id="stop3229"
         style="stop-color:#4d4d4d;stop-opacity:1"
         offset="0" />
      <stop
         id="stop3231"
         style="stop-color:#333333;stop-opacity:1"
         offset="1" />
    </linearGradient>
    <linearGradient
       x1="56.323174"
       y1="25.882757"
       x2="72.451813"
       y2="25.882757"
       id="linearGradient3354"
       xlink:href="#linearGradient3227"
       gradientUnits="userSpaceOnUse"
       gradientTransform="translate(-52.626503,-11.909638)" />
    <linearGradient
       id="linearGradient3356">
      <stop
         id="stop3358"
         style="stop-color:#808080;stop-opacity:1"
         offset="0" />
      <stop
         id="stop3360"
         style="stop-color:#6d6d6d;stop-opacity:1"
         offset="0.54610044" />
      <stop
         id="stop3362"
         style="stop-color:#4f5053;stop-opacity:1"
         offset="1" />
    </linearGradient>
    <linearGradient
       x1="3.6966691"
       y1="16.722891"
       x2="19.821404"
       y2="16.722891"
       id="linearGradient3352"
       xlink:href="#linearGradient3356"
       gradientUnits="userSpaceOnUse" />
    <linearGradient
       id="linearGradient4873">
      <stop
         id="stop4875"
         style="stop-color:#ffffff;stop-opacity:1"
         offset="0" />
      <stop
         id="stop4877"
         style="stop-color:#ffffff;stop-opacity:0"
         offset="1" />
    </linearGradient>
    <linearGradient
       x1="63.397362"
       y1="-12.489107"
       x2="63.397362"
       y2="5.4675598"
       id="linearGradient2428"
       xlink:href="#linearGradient4873"
       gradientUnits="userSpaceOnUse"
       gradientTransform="matrix(1.0862728,0,0,1.0862481,-55.56661,15.813638)" />
    <linearGradient
       x1="17.610361"
       y1="0.99995786"
       x2="17.610361"
       y2="23.062979"
       id="linearGradient3914"
       xlink:href="#linearGradient3268"
       gradientUnits="userSpaceOnUse" />
  </defs>
  <g
     id="layer1">
    <path
       d="M 24,21 C 24,22.656854 18.627417,24 12,24 C 5.3725828,24 -2.5e-07,22.656854 -2.5e-07,21 C -2.5e-07,19.343146 5.3725828,18 12,18 C 18.627417,18 24,19.343146 24,21 L 24,21 z"
       id="path8836"
       style="opacity:0.3;fill:url(#radialGradient2436);fill-opacity:1;fill-rule:evenodd;stroke:none;stroke-width:0.99999988;stroke-linecap:butt;stroke-linejoin:round;marker:none;marker-start:none;marker-mid:none;marker-end:none;stroke-miterlimit:4;stroke-dasharray:none;stroke-dashoffset:0;stroke-opacity:1;visibility:visible;display:inline;overflow:visible" />
    <path
       d="M 12.000002,1.501785 C 6.207449,1.501785 1.501785,6.2074466 1.501785,11.999999 C 1.501785,17.792553 6.207449,22.498218 12.000002,22.498215 C 17.792552,22.498215 22.498221,17.792553 22.498215,11.999999 C 22.498215,6.2074466 17.792552,1.501785 12.000002,1.501785 z"
       id="path2555"
       style="fill:url(#linearGradient3914);fill-opacity:1;stroke:url(#linearGradient2433);stroke-width:1.00365424;stroke-linecap:round;stroke-linejoin:round;stroke-miterlimit:4;stroke-dasharray:none;stroke-dashoffset:0;stroke-opacity:1" />
    <path
       d="M 19.373494,12.915663 A 7.6144576,7.6144576 0 1 1 4.1445785,12.915662 L 11.759036,12.915663 z"
       transform="matrix(0,1.3789557,-1.3132911,0,28.462025,-4.2151905)"
       id="path3314"
       style="opacity:1;fill:url(#linearGradient3352);fill-opacity:1;fill-rule:nonzero;stroke:url(#linearGradient3354);stroke-width:0.74309504;stroke-linecap:butt;stroke-linejoin:miter;marker:none;marker-start:none;marker-mid:none;marker-end:none;stroke-miterlimit:4;stroke-dasharray:none;stroke-dashoffset:0;stroke-opacity:1;visibility:visible;display:inline;overflow:visible;enable-background:accumulate" />
    <path
       d="M 21.499999,11.999663 C 21.499999,17.246537 17.24639,21.499999 12.00012,21.499999 C 6.7533674,21.499999 2.4999999,17.24649 2.4999999,11.999663 C 2.4999999,6.7530318 6.7533674,2.5000007 12.00012,2.5000007 C 17.24639,2.5000007 21.499999,6.7530318 21.499999,11.999663 L 21.499999,11.999663 z"
       id="path2463"
       style="opacity:0.4;fill:none;fill-opacity:1;fill-rule:nonzero;stroke:url(#linearGradient2428);stroke-width:0.99999994;stroke-miterlimit:4;stroke-dasharray:none;stroke-opacity:1" />
  </g>
</svg>

<?xml version="1.0" encoding="UTF-8" standalone="no"?>
<!-- Created with Inkscape (http://www.inkscape.org/) -->
<svg id="svg3365" xmlns="http://www.w3.org/2000/svg" height="24" width="24" version="1.0" xmlns:xlink="http://www.w3.org/1999/xlink">
 <defs id="defs3367">
  <radialGradient id="radialGradient2436" gradientUnits="userSpaceOnUse" cy="4.625" cx="62.625" gradientTransform="matrix(1.1294 0 0 .28235 -58.729 19.694)" r="10.625">
   <stop id="stop8840" offset="0"/>
   <stop id="stop8842" style="stop-opacity:0" offset="1"/>
  </radialGradient>
  <linearGradient id="linearGradient2433" y2="45.326" gradientUnits="userSpaceOnUse" x2="12.963" gradientTransform="matrix(.51604 0 0 .51604 -.38499 -.38499)" y1="2.6838" x1="12.963">
   <stop id="stop5026" style="stop-color:#808080" offset="0"/>
   <stop id="stop5028" style="stop-color:#6d6d6d" offset=".87327"/>
   <stop id="stop5030" style="stop-color:#4f5053" offset="1"/>
  </linearGradient>
  <linearGradient id="linearGradient3354" y2="25.883" gradientUnits="userSpaceOnUse" x2="72.452" gradientTransform="translate(-52.627 -11.91)" y1="25.883" x1="56.323">
   <stop id="stop3229" style="stop-color:#4d4d4d" offset="0"/>
   <stop id="stop3231" style="stop-color:#333" offset="1"/>
  </linearGradient>
  <linearGradient id="linearGradient3352" y2="16.723" gradientUnits="userSpaceOnUse" x2="19.821" y1="16.723" x1="3.6967">
   <stop id="stop3358" style="stop-color:#808080" offset="0"/>
   <stop id="stop3360" style="stop-color:#6d6d6d" offset=".54610"/>
   <stop id="stop3362" style="stop-color:#4f5053" offset="1"/>
  </linearGradient>
  <linearGradient id="linearGradient2428" y2="5.4676" gradientUnits="userSpaceOnUse" x2="63.397" gradientTransform="matrix(1.0863 0 0 1.0862 -55.567 15.814)" y1="-12.489" x1="63.397">
   <stop id="stop4875" style="stop-color:#fff" offset="0"/>
   <stop id="stop4877" style="stop-color:#fff;stop-opacity:0" offset="1"/>
  </linearGradient>
  <linearGradient id="linearGradient3914" y2="23.063" gradientUnits="userSpaceOnUse" x2="17.61" y1=".99996" x1="17.61">
   <stop id="stop3270" style="stop-color:#fff" offset="0"/>
   <stop id="stop3272" style="stop-color:#cdcdcd" offset="1"/>
  </linearGradient>
 </defs>
 <g id="layer1">
  <path id="path8836" style="opacity:.3;fill-rule:evenodd;fill:url(#radialGradient2436)" d="m24 21c0 1.657-5.373 3-12 3-6.6274 0-12-1.343-12-3-2.5e-7 -1.657 5.3726-3 12-3 6.627 0 12 1.343 12 3z"/>
  <path id="path2555" style="stroke-linejoin:round;stroke:url(#linearGradient2433);stroke-linecap:round;stroke-width:1.0037;fill:url(#linearGradient3914)" d="m12 1.5018c-5.7926 0-10.498 4.7056-10.498 10.498-0.0002 5.793 4.7054 10.498 10.498 10.498 5.793 0 10.498-4.705 10.498-10.498 0-5.7926-4.705-10.498-10.498-10.498z"/>
  <path id="path3314" style="stroke-width:.74310;stroke:url(#linearGradient3354);fill:url(#linearGradient3352)" d="m19.373 12.916a7.6145 7.6145 0 1 1 -15.228 0h7.614z" transform="matrix(0 1.379 -1.3133 0 28.462 -4.2152)"/>
  <path id="path2463" style="opacity:.4;stroke:url(#linearGradient2428);fill:none" d="m21.5 12c0 5.247-4.254 9.5-9.5 9.5-5.2466 0-9.5-4.254-9.5-9.5 0-5.247 4.2534-9.5 9.5-9.5 5.246 0 9.5 4.253 9.5 9.5z"/>
 </g>
</svg>
